icons/folder-open.svg

<svg width="24" height="24" viewBox="0 0 24 24" fill="none" xmlns="http://www.w3.org/2000/svg">
<path d="M15.7778 21H4.22222C3.01185 21 2 19.9755 2 18.75V5.25C2 4.0245 3.01185 3 4.22222 3H6.16111C8.47111 3.00102 9.21805 6.37393 11.6233 6.375H15.7778C16.9881 6.375 18 7.3995 18 8.625V10.0007M18 10.0007C17.795 10 17.5806 10 17.3563 10H9.69899C7.82179 10 6.88319 10 6.15628 10.5674C5.42937 11.1348 5.08077 12.1394 4.38361 14.1489L4.10012 14.9658C3.15155 17.6998 2.67728 19.0668 3.24493 20.0334C3.81258 21 5.08963 21 7.64371 21H15.301C17.1782 21 18.1168 21 18.8437 20.4326C19.5707 19.8652 19.9192 18.8606 20.6164 16.8511L20.8999 16.0342C21.8485 13.3002 22.3227 11.9333 21.7551 10.9666C21.2372 10.0849 20.1292 10.0075 18 10.0007Z" stroke="black" stroke-width="2" stroke-linecap="round" stroke-linejoin="round"/>
</svg>

<svg xmlns="http://www.w3.org/2000/svg" width="24" height="24" viewBox="0 0 24 24" fill="none" stroke="currentColor" stroke-width="2" stroke-linecap="round" stroke-linejoin="round">
<path d="M15.778 21H4.222C3.012 21 2 19.976 2 18.75V5.25C2 4.024 3.012 3 4.222 3h1.94c2.31.001 3.056 3.374 5.461 3.375h4.155c1.21 0 2.222 1.024 2.222 2.25v1.376m0 0L17.356 10H9.7c-1.877 0-2.816 0-3.543.567-.727.568-1.075 1.572-1.772 3.582l-.284.817c-.948 2.734-1.423 4.1-.855 5.067S5.09 21 7.644 21H15.3c1.877 0 2.816 0 3.543-.567.727-.568 1.075-1.572 1.772-3.582l.284-.817c.949-2.734 1.423-4.1.855-5.067-.518-.882-1.626-.96-3.755-.966"/>
</svg>
